X: 2664
T: Bank Of Ireland, The
R: reel
M: 4/4
K: Dmixolydian
AB|:c2AB c2AB|EGDG EGAB|c2AB cBAG|Ad~d2 dfed|
c2AB c2AB|EGDG EGAB|c2AB cBAG|1 Ad~d2 d2AB:|2 Ad~d2 d3e||
|:f2df e2c2|dfed cA A2|f3de2fg|afeg fed2|
faaf egfe|dfed cAAG|Ad~d2defg|afeg fed2:|

